X:1
T:I Ne'er Shall Wean Her
M:6/8
L:1/8
R:Jig
K:Ador
|:EGG GED|EGG c2B|ABA AGA|cde e2d|
cde g2a|ged c2d|eae fed|cAG A2 :|
|:d|egg ged|egg g2d|eaa aga|bag a2g|
cde g2a|ged c2d|eae fed|cAG A2 :|
